build/svg/sd/res/effectshape_16.svg

<?xml version="1.0" encoding="UTF-8" standalone="no"?>
<svg
   xmlns:dc="http://purl.org/dc/elements/1.1/"
   xmlns:cc="http://creativecommons.org/ns#"
   xmlns:rdf="http://www.w3.org/1999/02/22-rdf-syntax-ns#"
   xmlns:svg="http://www.w3.org/2000/svg"
   xmlns="http://www.w3.org/2000/svg"
   xmlns:sodipodi="http://sodipodi.sourceforge.net/DTD/sodipodi-0.dtd"
   xmlns:inkscape="http://www.inkscape.org/namespaces/inkscape"
   viewBox="0 0 16 16"
   version="1.1"
   id="svg4"
   sodipodi:docname="effectshape_16.svg"
   inkscape:export-filename="/home/jupiter007/Libreoffice yaru theme fullcolor/build/sd/res/effectshape_16.png"
   inkscape:export-xdpi="95"
   inkscape:export-ydpi="95"
   inkscape:version="0.92.5 (2060ec1f9f, 2020-04-08)">
  <metadata
     id="metadata10">
    <rdf:RDF>
      <cc:Work
         rdf:about="">
        <dc:format>image/svg+xml</dc:format>
        <dc:type
           rdf:resource="http://purl.org/dc/dcmitype/StillImage" />
      </cc:Work>
    </rdf:RDF>
  </metadata>
  <defs
     id="defs8" />
  <sodipodi:namedview
     pagecolor="#ffffff"
     bordercolor="#666666"
     borderopacity="1"
     objecttolerance="10"
     gridtolerance="10"
     guidetolerance="10"
     inkscape:pageopacity="0"
     inkscape:pageshadow="2"
     inkscape:window-width="1920"
     inkscape:window-height="1011"
     id="namedview6"
     showgrid="false"
     inkscape:zoom="14.75"
     inkscape:cx="0.44067797"
     inkscape:cy="8"
     inkscape:window-x="1920"
     inkscape:window-y="32"
     inkscape:window-maximized="1"
     inkscape:current-layer="svg4" />
  <path
     d="M 16,2 V 3 H 9.9999999 V 2 Z"
     id="path827"
     inkscape:connector-curvature="0"
     style="fill:#6d6d6d;fill-opacity:1"
     sodipodi:nodetypes="ccccc" />
  <path
     d="M 16,4 V 5 H 12 V 4 Z"
     id="path823"
     inkscape:connector-curvature="0"
     style="fill:#6d6d6d;fill-opacity:1"
     sodipodi:nodetypes="ccccc" />
  <path
     d="m 16,9 v 1 H 14 V 9 Z"
     id="path821"
     inkscape:connector-curvature="0"
     style="fill:#6d6d6d;fill-opacity:1"
     sodipodi:nodetypes="ccccc" />
  <path
     d="M 16,10.999999 V 12 h -3 v -1.000001 z"
     id="path819"
     inkscape:connector-curvature="0"
     style="fill:#6d6d6d;fill-opacity:1"
     sodipodi:nodetypes="ccccc" />
  <path
     d="m 16,13 v 1 h -2 v -1 z"
     id="path2"
     inkscape:connector-curvature="0"
     style="fill:#6d6d6d;fill-opacity:1"
     sodipodi:nodetypes="ccccc" />
  <path
     inkscape:connector-curvature="0"
     id="path837"
     d="m 8.0000002,1.999982 -2.0000009,4 -3.9999989,1 2.9999989,2.999999 -0.999999,4 3.9999999,-2 3.9999998,2 -1,-4 3,-2.999999 c 0,0 -4.0000001,-1 -4.0000001,-1 z"
     style="opacity:0.6;fill:#000000;fill-opacity:1;stroke:#000000;stroke-width:2;stroke-linecap:butt;stroke-linejoin:round;stroke-miterlimit:4;stroke-dasharray:none;stroke-opacity:1" />
  <path
     style="fill:#fee581;fill-opacity:1;stroke:none;stroke-width:1px;stroke-linecap:butt;stroke-linejoin:miter;stroke-opacity:1"
     d="m 8.0000002,1.999982 -2.0000009,4 -3.9999989,1 2.9999989,2.999999 -0.999999,4 3.9999999,-2 3.9999998,2 -1,-4 3,-2.999999 c 0,0 -4.0000001,-1 -4.0000001,-1 z"
     id="path835"
     inkscape:connector-curvature="0" />
  <path
     sodipodi:nodetypes="ccccc"
     style="fill:#6d6d6d;fill-opacity:1"
     inkscape:connector-curvature="0"
     id="path836"
     d="M 0,2 V 3 H 6.0000001 V 2 Z" />
  <path
     sodipodi:nodetypes="ccccc"
     style="fill:#6d6d6d;fill-opacity:1"
     inkscape:connector-curvature="0"
     id="path838"
     d="M 0,4 V 5 H 4 V 4 Z" />
  <path
     sodipodi:nodetypes="ccccc"
     style="fill:#6d6d6d;fill-opacity:1"
     inkscape:connector-curvature="0"
     id="path840"
     d="m 0,9 v 1 H 2 V 9 Z" />
  <path
     sodipodi:nodetypes="ccccc"
     style="fill:#6d6d6d;fill-opacity:1"
     inkscape:connector-curvature="0"
     id="path842"
     d="M 0,10.999999 V 12 h 3 v -1.000001 z" />
  <path
     sodipodi:nodetypes="ccccc"
     style="fill:#6d6d6d;fill-opacity:1"
     inkscape:connector-curvature="0"
     id="path844"
     d="m 0,13 v 1 h 2 v -1 z" />
</svg>

<svg xmlns="http://www.w3.org/2000/svg" viewBox="0 0 16 16"><path d="M16 2v1h-6V2zM16 4v1h-4V4zM16 9v1h-2V9zM16 11v1h-3v-1zM16 13v1h-2v-1z" fill="#6d6d6d"/><path d="M8 2L6 6 2 7l3 3-1 4 4-2 4 2-1-4 3-3-4-1z" opacity=".6" stroke="#000" stroke-width="2" stroke-linejoin="round"/><path d="M8 2L6 6 2 7l3 3-1 4 4-2 4 2-1-4 3-3-4-1z" fill="#fee581"/><path d="M0 2v1h6V2zM0 4v1h4V4zM0 9v1h2V9zM0 11v1h3v-1zM0 13v1h2v-1z" fill="#6d6d6d"/></svg>
